X: 3476
T: Beware Of The Storm
R: reel
M: 4/4
K: Bdorian
B2AF ~E3F|D2AD BD A/B/d|B2AF ~E3F|1 DFAF EdBA:|2 DFAF ~E3A||
Beed B2AF|D2F/E/D AD F/G/A|Beed B2AF|1 DFAF ~E3A:|2 DFAF EdBA||
f2ec ~B3c|A2eA fA e/f/a|f2ec ~B3c|1 Acec Bafe:|2 Acec ~B3e||
fbba f2ec|A2c/B/A eA c/d/e|fbba f2ec|1 Acec ~B3e:|2 Acec Bafe||

